img/about/320-card-1.svg

<svg width="64" height="49" viewBox="0 0 64 49" fill="none" xmlns="http://www.w3.org/2000/svg">
<circle cx="21.5" cy="27.5" r="21.5" fill="#FF9900"/>
<g clip-path="url(#clip0_166612_3994)">
<path fill-rule="evenodd" clip-rule="evenodd" d="M31.889 5.58662C31.9862 5.41727 32.2017 5.35916 32.3703 5.45681L52.9875 17.3975C53.1561 17.4952 53.214 17.7116 53.1168 17.881C53.0195 18.0503 52.804 18.1084 52.6354 18.0108L32.0182 6.07006C31.8496 5.97241 31.7917 5.75596 31.889 5.58662Z" fill="black"/>
<path fill-rule="evenodd" clip-rule="evenodd" d="M39.9738 0.666082C40.7428 0.222204 41.615 -0.0114746 42.5028 -0.0114746C43.3907 -0.0114746 44.2629 0.222204 45.0318 0.666082C45.0321 0.666223 45.0323 0.666364 45.0326 0.666505L61.4759 10.0646C62.2443 10.5083 62.8825 11.1463 63.3265 11.9146C63.7705 12.6829 64.0048 13.5545 64.0057 14.4419V33.2389C64.0048 34.1263 63.7705 34.9979 63.3265 35.7662C62.8825 36.5345 62.2443 37.1725 61.4759 37.6162L61.4745 37.617L45.0326 47.0143C45.0324 47.0144 45.0323 47.0145 45.0322 47.0145C44.2631 47.4585 43.3908 47.6923 42.5028 47.6923C41.6149 47.6923 40.7425 47.4585 39.9735 47.0145C39.9734 47.0145 39.9732 47.0144 39.9731 47.0143L23.5311 37.617L23.5297 37.6162C22.7614 37.1725 22.1232 36.5345 21.6791 35.7662C21.2351 34.9979 21.0009 34.1263 21 33.2389V14.4419C21.0009 13.5545 21.2351 12.6829 21.6791 11.9146C22.1232 11.1463 22.7614 10.5083 23.5297 10.0646L23.5311 10.0638L39.9731 0.666505C39.9733 0.666364 39.9736 0.666223 39.9738 0.666082ZM42.5028 0.711456C41.7416 0.711456 40.9937 0.911879 40.3345 1.29258L40.3331 1.29338L23.8911 10.6907C23.8909 10.6908 23.8906 10.691 23.8904 10.6911C23.2321 11.0714 22.6853 11.6181 22.3049 12.2764C21.9243 12.9349 21.7236 13.6819 21.7228 14.4425V33.2383C21.7236 33.9989 21.9243 34.7459 22.3049 35.4044C22.6853 36.0627 23.2321 36.6093 23.8903 36.9897C23.8906 36.9898 23.8909 36.99 23.8911 36.9901L40.3345 46.3882C40.9937 46.7689 41.7416 46.9694 42.5028 46.9694C43.2641 46.9694 44.0119 46.7689 44.6712 46.3882L44.6726 46.3874L61.1145 36.9901C61.1148 36.99 61.1151 36.9898 61.1154 36.9897C61.7736 36.6093 62.3203 36.0627 62.7008 35.4044C63.0813 34.7459 63.2821 33.9988 63.2829 33.2381V14.4427C63.2821 13.682 63.0813 12.935 62.7008 12.2764C62.3203 11.6181 61.7735 11.0714 61.1153 10.6911C61.115 10.691 61.1148 10.6908 61.1145 10.6907L44.6726 1.29338L44.6712 1.29258C44.0119 0.911879 43.2641 0.711456 42.5028 0.711456Z" fill="black"/>
<path fill-rule="evenodd" clip-rule="evenodd" d="M21.7708 12.0905C21.8694 11.9219 22.0877 11.8642 22.2582 11.9618L42.3221 23.4412L62.3861 11.9618C62.5566 11.8642 62.7748 11.9219 62.8735 12.0905C62.9721 12.2592 62.9139 12.475 62.7433 12.5726L42.5008 24.1542C42.3903 24.2174 42.254 24.2174 42.1435 24.1542L21.9009 12.5726C21.7304 12.475 21.6721 12.2592 21.7708 12.0905Z" fill="black"/>
<path fill-rule="evenodd" clip-rule="evenodd" d="M42.3221 23.479C42.5217 23.479 42.6835 23.6372 42.6835 23.8323V46.9776C42.6835 47.1727 42.5217 47.3309 42.3221 47.3309C42.1225 47.3309 41.9607 47.1727 41.9607 46.9776V23.8323C41.9607 23.6372 42.1225 23.479 42.3221 23.479Z" fill="black"/>
</g>
<defs>
<clipPath id="clip0_166612_3994">
<rect width="43" height="48" fill="white" transform="translate(21)"/>
</clipPath>
</defs>
</svg>

<svg width="64" height="49" fill="none" xmlns="http://www.w3.org/2000/svg"><circle cx="21.5" cy="27.5" r="21.5" fill="#F90"/><g clip-path="url(#a)" fill-rule="evenodd" clip-rule="evenodd" fill="#000"><path d="M31.889 5.587a.352.352 0 0 1 .481-.13l20.617 11.94a.355.355 0 0 1 .13.484.352.352 0 0 1-.482.13L32.018 6.07a.355.355 0 0 1-.129-.484Z"/><path d="M39.974.666a5.059 5.059 0 0 1 5.058 0l16.444 9.399a5.06 5.06 0 0 1 2.53 4.377v18.797a5.061 5.061 0 0 1-2.53 4.377l-.002.001-16.441 9.397a5.06 5.06 0 0 1-5.06 0l-16.442-9.397h-.001A5.061 5.061 0 0 1 21 33.238V14.442a5.061 5.061 0 0 1 2.53-4.377l.001-.001L39.973.667Zm2.529.045c-.761 0-1.51.2-2.169.582L23.89 10.691a4.337 4.337 0 0 0-2.168 3.752v18.795a4.338 4.338 0 0 0 2.167 3.752h.001l16.444 9.398a4.336 4.336 0 0 0 4.336 0h.002l16.441-9.398h.001a4.339 4.339 0 0 0 2.168-3.752V14.443a4.34 4.34 0 0 0-2.168-3.752L44.672 1.293h-.002A4.336 4.336 0 0 0 42.503.71Z"/><path d="M21.77 12.09a.359.359 0 0 1 .488-.128l20.064 11.48 20.064-11.48a.359.359 0 0 1 .487.129.35.35 0 0 1-.13.482L42.501 24.154a.36.36 0 0 1-.357 0L21.9 12.573a.35.35 0 0 1-.13-.482Z"/><path d="M42.322 23.479c.2 0 .361.158.361.353v23.146a.357.357 0 0 1-.36.353.357.357 0 0 1-.362-.353V23.832c0-.195.162-.353.361-.353Z"/></g><defs><clipPath id="a"><path fill="#fff" transform="translate(21)" d="M0 0h43v48H0z"/></clipPath></defs></svg>
